assets/svg/migaku-logo-color.svg

<svg fill="none" height="32" viewBox="0 0 160 32" width="160" xmlns="http://www.w3.org/2000/svg" xmlns:xlink="http://www.w3.org/1999/xlink"><linearGradient id="a" gradientUnits="userSpaceOnUse" x1="80.4315" x2="80.4315" y1="5.06629" y2="28.3026"><stop offset="0" stop-color="#ff9d29"/><stop offset="1" stop-color="#f1509e"/></linearGradient><path clip-rule="evenodd" d="m16.3459 3.25279c-.555-1.43203-1.9728-2.340405-3.5057-2.24616-1.533.09425-2.8288 1.16947-3.20421 2.65871l-5.52801 21.92826c-.47626 1.8892.66914 3.8067 2.55833 4.283 1.88918.4762 3.80679-.6692 4.28299-2.5583l1.7788-7.0562c1.3444 3.3058 4.5886 5.6364 8.3772 5.6364 3.79 0 7.0352-2.3323 8.3786-5.6399l1.7797 7.0597c.4763 1.8891 2.3939 3.0345 4.283 2.5583 1.8892-.4763 3.0346-2.3938 2.5584-4.283l-5.528-21.92826c-.3755-1.48924-1.6713-2.56446-3.2042-2.65871-1.533-.094245-2.9507.81413-3.5058 2.24616l-1.7454 4.50319c-.0687.17725-.1491.34309-.2397.49752-.8749-.28206-1.8079-.43441-2.7766-.43441-.9679 0-1.9003.15213-2.7746.43378-.0905-.15425-.1708-.31988-.2394-.49689zm10.5393 15.18901c.1896-.7141.1741-1.8695.0359-2.4641-.5913-2.5425-2.9299-4.5137-5.5562-4.5193-3.4122-.0073-6.1236 2.6033-6.1597 6.0273-.0247 2.3514 1.7459 4.7808 4.2446 4.7737 1.8994-.0054 3.6587-1.4367 3.6694-3.5703.0049-.9539-.3505-2.6364-1.5576-2.6718-.5436-.016-1.15.5137-1.1599 1.0762-.0048.2665.0808.517.1668.7687.0848.2481.17.4974.1694.7643-.0018.7513-.4896 1.2683-1.1903 1.2885-1.4575.0422-2.0443-1.5208-2.0305-2.7606.0138-1.2489.5011-2.6092 1.4276-3.32 2.6803-2.0567 6.3638-.8338 7.4675 2.4791.1104.3314.2343 1.2862.1982 2.085 0 .2906.2091.2906.2748.0433zm18.3775-13.86956c1.9483-.00007 3.5277 1.57927 3.5278 3.52756l.0007 18.6493c0 1.9483-1.5793 3.5277-3.5276 3.5278s-3.5278-1.5793-3.5278-3.5276l-.0007-18.64924c-.0001-1.94829 1.5793-3.52775 3.5276-3.52782zm89.8193 0c1.949-.00007 3.528 1.57927 3.528 3.52756l.001 9.3191c0 3.0918 2.506 5.5982 5.598 5.5982s5.598-2.5066 5.598-5.5986v-9.31844c0-1.94829 1.579-3.52775 3.528-3.52782 1.948-.00007 3.527 1.57927 3.527 3.52756l.001 9.3184c0 6.9887-5.665 12.6543-12.654 12.6543-6.988 0-12.654-5.665-12.654-12.6533v-9.31914c0-1.94829 1.579-3.52775 3.527-3.52782zm-21.068 3.52756c0-1.94829-1.58-3.52763-3.528-3.52756s-3.527 1.57953-3.527 3.52782v18.62464.0183c0 .0296.001.0591.001.0886.012.5249.139 1.0214.356 1.4656.24.4925.599.9363 1.069 1.2854.786.5831 1.734.7908 2.631.6549.259-.039.509-.1062.747-.1985.601-.2323 1.145-.6317 1.557-1.1871l4.399-5.9277 5.917 6.0809c1.359 1.3963 3.592 1.4268 4.988.0681 1.397-1.3587 1.427-3.5921.068-4.9884l-6.714-6.9002 5.019-6.7635c1.161-1.56452.834-3.77405-.73-4.93508-1.565-1.16103-3.775-.83391-4.936.73065l-7.317 9.86023zm-22.8067-3.52756c1.3238 0 2.5361.74112 3.1397 1.91931l9.553 18.64925c.889 1.734.203 3.8598-1.531 4.7481s-3.8596.2027-4.7479-1.5313l-6.4138-12.5203-6.4138 12.5203c-.8883 1.734-3.0141 2.4196-4.7481 1.5313s-2.4196-3.0141-1.5313-4.7481l9.5535-18.64925c.6035-1.17819 1.8159-1.91931 3.1397-1.91931zm-38.9719 12.96846c0-6.9781 5.7443-12.64739 12.729-12.64739h6.2067c1.9483 0 3.5277 1.5794 3.5277 3.52769 0 1.9483-1.5794 3.5277-3.5277 3.5277h-6.2067c-3.0815 0-5.6736 2.5039-5.6736 5.592s2.5921 5.592 5.6736 5.592c1.913 0 4.2274-1.1074 5.017-2.7162h-5.017c-1.6236 0-2.9398-1.3162-2.9398-2.9397 0-1.6236 1.3162-2.9398 2.9398-2.9398h8.9715c2.0622 0 3.5945 1.7181 3.5945 3.7451 0 6.5755-5.9906 11.906-12.566 11.906-6.9847 0-12.729-5.6693-12.729-12.6474zm42.5053 9.1202c0 1.9519-1.5823 3.5342-3.5341 3.5342-1.9519 0-3.5342-1.5823-3.5342-3.5342 0-1.9518 1.5823-3.5341 3.5342-3.5341 1.9518 0 3.5341 1.5823 3.5341 3.5341z" fill="url(#a)" fill-rule="evenodd"/></svg>

<svg width="160" height="32" viewBox="0 0 160 32" fill="none" xmlns="http://www.w3.org/2000/svg">
<path fill-rule="evenodd" clip-rule="evenodd" d="M16.3459 3.25279C15.7909 1.82076 14.3731 0.912385 12.8402 1.00663C11.3072 1.10088 10.0114 2.1761 9.63599 3.66534L4.10798 25.5936C3.63172 27.4828 4.77712 29.4003 6.66631 29.8766C8.55549 30.3528 10.4731 29.2074 10.9493 27.3183L12.7281 20.2621C14.0725 23.5679 17.3167 25.8985 21.1053 25.8985C24.8953 25.8985 28.1405 23.5662 29.4839 20.2586L31.2636 27.3183C31.7399 29.2074 33.6575 30.3528 35.5466 29.8766C37.4358 29.4003 38.5812 27.4828 38.105 25.5936L32.577 3.66534C32.2015 2.1761 30.9057 1.10088 29.3728 1.00663C27.8398 0.912385 26.4221 1.82076 25.867 3.25279L24.1216 7.75598C24.0529 7.93323 23.9725 8.09907 23.8819 8.2535C23.007 7.97144 22.074 7.81909 21.1053 7.81909C20.1374 7.81909 19.205 7.97122 18.3307 8.25287C18.2402 8.09862 18.1599 7.93299 18.0913 7.75598L16.3459 3.25279ZM26.8852 18.4418C27.0748 17.7277 27.0593 16.5723 26.9211 15.9777C26.3298 13.4352 23.9912 11.464 21.3649 11.4584C17.9527 11.4511 15.2413 14.0617 15.2052 17.4857C15.1805 19.8371 16.9511 22.2665 19.4498 22.2594C21.3492 22.254 23.1085 20.8227 23.1192 18.6891C23.1241 17.7352 22.7687 16.0527 21.5616 16.0173C21.018 16.0013 20.4116 16.531 20.4017 17.0935C20.3969 17.36 20.4825 17.6105 20.5685 17.8622C20.6533 18.1103 20.7385 18.3596 20.7379 18.6265C20.7361 19.3778 20.2483 19.8948 19.5476 19.915C18.0901 19.9572 17.5033 18.3942 17.5171 17.1544C17.5309 15.9055 18.0182 14.5452 18.9447 13.8344C21.625 11.7777 25.3085 13.0006 26.4122 16.3135C26.5226 16.6449 26.6465 17.5997 26.6104 18.3985C26.6104 18.6891 26.8195 18.6891 26.8852 18.4418ZM45.2627 4.57224C47.211 4.57217 48.7904 6.15151 48.7905 8.0998L48.7912 26.7491C48.7912 28.6974 47.2119 30.2768 45.2636 30.2769C43.3153 30.277 41.7358 28.6976 41.7358 26.7493L41.7351 8.10006C41.735 6.15177 43.3144 4.57231 45.2627 4.57224ZM135.082 4.57224C137.031 4.57217 138.61 6.15151 138.61 8.0998L138.611 17.4189C138.611 20.5107 141.117 23.0171 144.209 23.0171C147.301 23.0171 149.807 20.5105 149.807 17.4185L149.807 8.10006C149.807 6.15177 151.386 4.57231 153.335 4.57224C155.283 4.57217 156.862 6.15151 156.862 8.0998L156.863 17.4182C156.863 24.4069 151.198 30.0725 144.209 30.0725C137.221 30.0725 131.555 24.4075 131.555 17.4192L131.555 8.10006C131.555 6.15177 133.134 4.57231 135.082 4.57224ZM114.014 8.0998C114.014 6.15151 112.434 4.57217 110.486 4.57224C108.538 4.57231 106.959 6.15177 106.959 8.10006L106.959 26.7247L106.959 26.743C106.959 26.7726 106.96 26.8021 106.96 26.8316C106.972 27.3565 107.099 27.853 107.316 28.2972C107.556 28.7897 107.915 29.2335 108.385 29.5826C109.171 30.1657 110.119 30.3734 111.016 30.2375C111.275 30.1985 111.525 30.1313 111.763 30.039C112.364 29.8067 112.908 29.4073 113.32 28.8519L117.719 22.9242L123.636 29.0051C124.995 30.4014 127.228 30.4319 128.624 29.0732C130.021 27.7145 130.051 25.4811 128.692 24.0848L121.978 17.1846L126.997 10.4211C128.158 8.85658 127.831 6.64705 126.267 5.48602C124.702 4.32499 122.492 4.65211 121.331 6.21667L114.014 16.0769L114.014 8.0998ZM91.2073 4.57224C92.5311 4.57224 93.7434 5.31336 94.347 6.49155L103.9 25.1408C104.789 26.8748 104.103 29.0006 102.369 29.8889C100.635 30.7772 98.5094 30.0916 97.6211 28.3576L91.2073 15.8373L84.7935 28.3576C83.9052 30.0916 81.7794 30.7772 80.0454 29.8889C78.3114 29.0006 77.6258 26.8748 78.5141 25.1408L88.0676 6.49155C88.6711 5.31336 89.8835 4.57224 91.2073 4.57224ZM52.2354 17.5407C52.2354 10.5626 57.9797 4.89331 64.9644 4.89331H71.1711C73.1194 4.89331 74.6988 6.47271 74.6988 8.421C74.6988 10.3693 73.1194 11.9487 71.1711 11.9487H64.9644C61.8829 11.9487 59.2908 14.4526 59.2908 17.5407C59.2908 20.6288 61.8829 23.1327 64.9644 23.1327C66.8774 23.1327 69.1918 22.0253 69.9814 20.4165H64.9644C63.3408 20.4165 62.0246 19.1003 62.0246 17.4768C62.0246 15.8532 63.3408 14.537 64.9644 14.537H73.9359C75.9981 14.537 77.5304 16.2551 77.5304 18.2821C77.5304 24.8576 71.5398 30.1881 64.9644 30.1881C57.9797 30.1881 52.2354 24.5188 52.2354 17.5407ZM94.7407 26.6609C94.7407 28.6128 93.1584 30.1951 91.2066 30.1951C89.2547 30.1951 87.6724 28.6128 87.6724 26.6609C87.6724 24.7091 89.2547 23.1268 91.2066 23.1268C93.1584 23.1268 94.7407 24.7091 94.7407 26.6609Z" fill="url(#paint0_linear_9_320)"/>
<defs>
<linearGradient id="paint0_linear_9_320" x1="80.4315" y1="5.06629" x2="80.4315" y2="28.3026" gradientUnits="userSpaceOnUse">
<stop stop-color="#FF9D29"/>
<stop offset="1" stop-color="#F1509E"/>
</linearGradient>
</defs>
</svg>
